img/Inet.svg

<svg width="24" height="24" viewBox="0 0 24 24" fill="none" xmlns="http://www.w3.org/2000/svg">
<path fill-rule="evenodd" clip-rule="evenodd" d="M24 12C24 18.6275 18.6275 24 12 24C5.37259 24 0 18.6275 0 12C0 5.37259 5.37259 0 12 0C18.6275 0 24 5.37259 24 12ZM6.12377 14C6.04208 13.3448 6 12.6773 6 12C6 11.3227 6.04209 10.6552 6.1238 10H2.20004C2.06887 10.6462 2 11.3151 2 12C2 12.6849 2.06887 13.3537 2.20004 14H6.12377ZM6.50405 16H2.83209C4.0096 18.6951 6.34063 20.7707 9.20108 21.6031C7.96156 19.9536 7.03345 18.0568 6.50405 16ZM8.57976 16H15.4203C14.7623 18.2109 13.5728 20.1929 12 21.798C10.4272 20.1929 9.23776 18.2109 8.57976 16ZM15.8583 14H8.14179C8.04836 13.3468 8 12.679 8 12C8 11.321 8.04836 10.6532 8.14179 10H15.8583C15.9516 10.6532 16 11.321 16 12C16 12.679 15.9516 13.3468 15.8583 14ZM17.8763 14C17.9579 13.3448 18 12.6773 18 12C18 11.3227 17.9579 10.6552 17.8763 10H21.8C21.9312 10.6462 22 11.3151 22 12C22 12.6849 21.9312 13.3537 21.8 14H17.8763ZM17.496 16H21.1679C19.9904 18.6951 17.6593 20.7707 14.7989 21.6031C16.0384 19.9536 16.9665 18.0568 17.496 16ZM12 2.20204C10.4272 3.80704 9.23776 5.78908 8.57976 8H15.4203C14.7623 5.78908 13.5728 3.80704 12 2.20204ZM14.7989 2.39697C16.0384 4.04639 16.9665 5.94316 17.4959 8H21.1679C19.9904 5.30497 17.6593 3.22927 14.7989 2.39697ZM2.83209 8H6.50408C7.03348 5.94316 7.9616 4.04639 9.20111 2.39697C6.34064 3.22927 4.0096 5.30497 2.83209 8Z" fill="black"/>
</svg>

<svg width="24" height="24" fill="none" xmlns="http://www.w3.org/2000/svg"><path fill-rule="evenodd" clip-rule="evenodd" d="M24 12c0 6.628-5.372 12-12 12-6.627 0-12-5.372-12-12C0 5.373 5.373 0 12 0c6.628 0 12 5.373 12 12zM6.124 14a16.16 16.16 0 0 1 0-4H2.2a10.046 10.046 0 0 0 0 4h3.924zm.38 2H2.832a10.026 10.026 0 0 0 6.37 5.603A15.939 15.939 0 0 1 6.503 16zm2.076 0h6.84A13.99 13.99 0 0 1 12 21.798 13.99 13.99 0 0 1 8.58 16zm7.278-2H8.142a14.12 14.12 0 0 1 0-4h7.716a14.139 14.139 0 0 1 0 4zm2.018 0a16.178 16.178 0 0 0 0-4H21.8a10.044 10.044 0 0 1 0 4h-3.924zm-.38 2h3.672a10.026 10.026 0 0 1-6.37 5.603A15.94 15.94 0 0 0 17.497 16zM12 2.202A13.99 13.99 0 0 0 8.58 8h6.84A13.99 13.99 0 0 0 12 2.202zm2.799.195A15.938 15.938 0 0 1 17.496 8h3.672a10.026 10.026 0 0 0-6.37-5.603zM2.832 8h3.672a15.937 15.937 0 0 1 2.697-5.603A10.026 10.026 0 0 0 2.832 8z" fill="#000"/></svg>
